X:871
T:Stumpie
R:Strathspey
B:The Athole Collection
M:C
L:1/8
K:A
d|c>e a2 a/g/f/e/ a2|c>e a2 b<B B>d|c>e a2 a/g/f/e/ a2|c>eB>d c<AA:|
|:d|c>e e>d/c/ d>f f>e/d/|c>e e>d/c/ f<B B>d|1 c>e e>d/c/ d>f f>ed|c>eB>d
c<AA:|2
c>e a2 b/a/g/f/ a2|c>aB>d c<AA||

